X:1
T:Calium Mo Ruimsa  "CCPB Sep-1995"
M:9/8
L:1/8
Q:80
C:
S:Slow Air
K:HP
[| {g}ABd{g}f3{gef}e2f | \
{gef}edB{g}A3{GAG}A2f | \
{gf}g{a}fg{ag}a3{fg}f2e |
{g}dBd{gef}e3{A}e2a | \
{g}a2{GdG}a{fg}f3{gef}e2d | \
{gef}edB{g}A3{GAG}A2f |
{gf}g{a}fg{ag}a3{fg}f2d | \
{gef}edB{Gdc}d3{gdG}d2A|]
{GAG}AB{G}A{Gdc}d3{gef}e2f |
{gef}edB{g}A3{GAG}A2f | \
{gf}g{a}fg{ag}a3{fg}f2e | \
{g}dBd{gef}e3{A}e2a |
{g}a2{GdG}a{fg}f3{gef}e2d | \
{gef}edB{g}A3{GAG}A2f | \
{gf}g{a}fg{ag}a3{fg}f2d |
{gef}edB{Gdc}d3{gdG}d3|]
